qml/icons/graeser.svg

<svg xmlns="http://www.w3.org/2000/svg" viewBox="0 0 453 453" width="32" height="32"><path d="M451.2 100.5c-3.2-3.2-7.2-3.2-10.4-.8-4 3.2-77.6 64.8-116.8 167.2-7.2-18.4-15.2-36.8-24-52.8 20.8-68 41.6-115.2 63.2-140 2.4-3.2 2.4-8-.8-11.2-3.2-3.2-8-3.2-11.2 0-1.6 1.6-40.8 40.8-80 101.6-8.8-13.6-17.6-25.6-26.4-36.8 10.4-23.2 21.6-41.6 32-54.4 2.4-3.2 2.4-8-.8-11.2-3.2-3.2-8-3.2-11.2 0-.8.8-16.8 16.8-38.4 42.4-20.8-25.6-36.8-40.8-38.4-42.4-3.2-3.2-8-3.2-11.2 0-3.2 3.2-3.2 8-.8 11.2 11.2 13.6 22.4 32 32 54.4-8.8 11.2-16.8 23.2-25.6 36.8-38.4-60.8-77.6-100-80-101.6-3.2-3.2-8-3.2-11.2 0-3.2 3.2-3.2 8-.8 11.2 24.8 28.8 46.4 84 63.2 140-9.6 17.6-17.6 36-24 53.6C89.6 164.5 16 102.9 12.8 99.7c-3.2-2.4-8-2.4-10.4.8-3.2 3.2-3.2 8 0 11.2C56 174.9 82.4 337.3 88 377.3H40.8c-4.8 0-8 3.2-8 8s3.2 8 8 8h374.4c4.8 0 8-3.2 8-8s-3.2-8-8-8h-49.6c5.6-40 32-202.4 85.6-265.6 2.4-3.2 2.4-8 0-11.2zm-141.6 36.8c-7.2 16.8-13.6 36.8-20.8 58.4-3.2-4.8-5.6-9.6-8.8-14.4 9.6-16 20-31.2 29.6-44zm-69.6 80c-4 10.4-8.8 20.8-13.6 31.2-4.8-11.2-9.6-21.6-15.2-32 4.8-16 9.6-30.4 14.4-43.2 5.6 14.4 10.4 28.8 14.4 44zm-24-71.2c.8 1.6 1.6 3.2 1.6 4.8-5.6 14.4-11.2 29.6-16.8 46.4-3.2-5.6-6.4-11.2-9.6-16 8.8-12.8 16.8-24.8 24.8-35.2zM104 377.3h-.8c-4-28-20-136-54.4-215.2 24.8 31.2 53.6 75.2 72 130.4-9.6 28.8-14.4 57.6-16.8 84.8zm49.6 0h-34.4c3.2-44.8 16.8-92 40-140 5.6 19.2 10.4 37.6 14.4 54.4-10.4 40-16.8 72.8-20 85.6zm16.8 0c2.4-10.4 5.6-28.8 11.2-51.2 5.6 23.2 8.8 41.6 11.2 51.2h-22.4zm28.8-44c-11.2-51.2-30.4-132-56.8-195.2 26.4 33.6 55.2 79.2 75.2 132-8 21.6-13.6 42.4-18.4 63.2zm44.8 43.2h-34.331c3.296-43.763 16.066-89.89 38.331-137.6 5.6 18.4 10.4 36 14.4 52-9.6 39.2-16 72-18.4 85.6zm16.8.8c1.6-10.4 5.6-28.8 10.4-51.2 4.8 23.2 8.8 41.6 11.2 51.2h-21.6zm38.4.8h-.8c-5.6-28.8-28.8-140-63.2-227.2.8-1.6 1.6-3.2 1.6-4.8 28 38.4 59.2 88.8 78.4 146.4-8 26.4-13.6 54.4-16 85.6zm50.4-.8H316c6.4-94.4 52-169.6 88-215.2-34.4 80-50.4 187.2-54.4 215.2z" fill="#FFF"/></svg>

<?xml version="1.0" encoding="iso-8859-1"?>
<!-- Generator: Adobe Illustrator 19.0.0, SVG Export Plug-In . SVG Version: 6.00 Build 0)  -->
<svg xmlns="http://www.w3.org/2000/svg" xmlns:xlink="http://www.w3.org/1999/xlink" version="1.1" id="Capa_1" x="0px" y="0px" viewBox="0 0 453 453" style="enable-background:new 0 0 453 453;" xml:space="preserve" width="32px" height="32px">
<g>
	<g>
		<path d="M451.2,100.5c-3.2-3.2-7.2-3.2-10.4-0.8c-4,3.2-77.6,64.8-116.8,167.2c-7.2-18.4-15.2-36.8-24-52.8    c20.8-68,41.6-115.2,63.2-140c2.4-3.2,2.4-8-0.8-11.2c-3.2-3.2-8-3.2-11.2,0c-1.6,1.6-40.8,40.8-80,101.6    c-8.8-13.6-17.6-25.6-26.4-36.8c10.4-23.2,21.6-41.6,32-54.4c2.4-3.2,2.4-8-0.8-11.2c-3.2-3.2-8-3.2-11.2,0    c-0.8,0.8-16.8,16.8-38.4,42.4c-20.8-25.6-36.8-40.8-38.4-42.4c-3.2-3.2-8-3.2-11.2,0c-3.2,3.2-3.2,8-0.8,11.2    c11.2,13.6,22.4,32,32,54.4c-8.8,11.2-16.8,23.2-25.6,36.8c-38.4-60.8-77.6-100-80-101.6c-3.2-3.2-8-3.2-11.2,0    c-3.2,3.2-3.2,8-0.8,11.2c24.8,28.8,46.4,84,63.2,140c-9.6,17.6-17.6,36-24,53.6C89.6,164.5,16,102.9,12.8,99.7    c-3.2-2.4-8-2.4-10.4,0.8c-3.2,3.2-3.2,8,0,11.2C56,174.9,82.4,337.3,88,377.3H40.8v0c-4.8,0-8,3.2-8,8s3.2,8,8,8H96h15.2h34.4    h15.2h40.8h0.8h48h0.8H292h15.2h34.4h15.2h58.4c4.8,0,8-3.2,8-8s-3.2-8-8-8h-49.6c5.6-40,32-202.4,85.6-265.6    C453.6,108.5,453.6,103.7,451.2,100.5z M309.6,137.3c-7.2,16.8-13.6,36.8-20.8,58.4c-3.2-4.8-5.6-9.6-8.8-14.4    C289.6,165.3,300,150.1,309.6,137.3z M240,217.3c-4,10.4-8.8,20.8-13.6,31.2c-4.8-11.2-9.6-21.6-15.2-32    c4.8-16,9.6-30.4,14.4-43.2C231.2,187.7,236,202.1,240,217.3z M216,146.1c0.8,1.6,1.6,3.2,1.6,4.8c-5.6,14.4-11.2,29.6-16.8,46.4    c-3.2-5.6-6.4-11.2-9.6-16C200,168.5,208,156.5,216,146.1z M104,377.3h-0.8c-4-28-20-136-54.4-215.2c24.8,31.2,53.6,75.2,72,130.4    C111.2,321.3,106.4,350.1,104,377.3z M153.6,377.3h-8.8h-25.6c3.2-44.8,16.8-92,40-140c5.6,19.2,10.4,37.6,14.4,54.4    C163.2,331.7,156.8,364.5,153.6,377.3z M170.4,377.3c2.4-10.4,5.6-28.8,11.2-51.2c5.6,23.2,8.8,41.6,11.2,51.2H170.4z     M199.2,333.3c-11.2-51.2-30.4-132-56.8-195.2c26.4,33.6,55.2,79.2,75.2,132C209.6,291.7,204,312.5,199.2,333.3z M244,376.5    h-34.331c3.296-43.763,16.066-89.89,38.331-137.6c5.6,18.4,10.4,36,14.4,52C252.8,330.1,246.4,362.9,244,376.5z M260.8,377.3    c1.6-10.4,5.6-28.8,10.4-51.2c4.8,23.2,8.8,41.6,11.2,51.2H260.8z M299.2,378.1h-0.8c-5.6-28.8-28.8-140-63.2-227.2    c0.8-1.6,1.6-3.2,1.6-4.8c28,38.4,59.2,88.8,78.4,146.4C307.2,318.9,301.6,346.9,299.2,378.1z M349.6,377.3h-8H316    c6.4-94.4,52-169.6,88-215.2C369.6,242.1,353.6,349.3,349.6,377.3z" fill="#FFFFFF"/>
	</g>
</g>
<g>
</g>
<g>
</g>
<g>
</g>
<g>
</g>
<g>
</g>
<g>
</g>
<g>
</g>
<g>
</g>
<g>
</g>
<g>
</g>
<g>
</g>
<g>
</g>
<g>
</g>
<g>
</g>
<g>
</g>
</svg>
